apps/scalable/driconf.svg

<svg xmlns="http://www.w3.org/2000/svg" style="isolation:isolate" width="256" height="256"><defs><filter id="a" width="270.648" height="254.338" x="-7.32" y="2.95" filterUnits="userSpaceOnUse"><feGaussianBlur xmlns="http://www.w3.org/2000/svg" in="SourceGraphic" stdDeviation="4.294"/><feOffset xmlns="http://www.w3.org/2000/svg" dy="4" result="pf_100_offsetBlur"/><feFlood xmlns="http://www.w3.org/2000/svg" flood-opacity=".4"/><feComposite xmlns="http://www.w3.org/2000/svg" in2="pf_100_offsetBlur" operator="in" result="pf_100_dropShadow"/><feBlend xmlns="http://www.w3.org/2000/svg" in="SourceGraphic" in2="pf_100_dropShadow"/></filter></defs><g filter="url(#a)"><linearGradient id="b" x1=".567" x2=".567" y1="1.071" y2="-.071" gradientTransform="matrix(244.648 0 0 228.338 5.676 11.947)" gradientUnits="userSpaceOnUse"><stop offset="0%" stop-color="#a0a0a0"/><stop offset="100%" stop-color="#dfdfdf"/></linearGradient><path fill="url(#b)" d="M165.685 11.947c74.055 0 84.639 10.557 84.639 84.544v59.251c0 73.986-10.584 84.543-84.639 84.543h-75.37c-74.055 0-84.639-10.557-84.639-84.543V96.491c0-73.987 10.584-84.544 84.639-84.544h75.37z"/></g><path fill="#DA1636" fill-rule="evenodd" d="M55.6 160.733V95.267h22.072q8.23 0 14.542 2.759 6.313 2.759 9.961 7.528 3.647 4.77 5.424 10.428 1.777 5.658 1.777 12.018 0 4.676-.982 9.165-.982 4.489-3.414 8.838-2.431 4.349-5.985 7.576-3.554 3.226-9.165 5.19-5.612 1.964-12.533 1.964H55.6zm12.626-11.971h10.568q8.884 0 13.187-6.219 4.302-6.219 4.302-14.543 0-8.511-4.209-14.636-4.208-6.126-12.251-6.126H68.226v41.524z"/><path fill="#46A926" fill-rule="evenodd" d="M134.627 160.733h-12.625V95.267h30.395q11.503 0 16.694 5.752 5.19 5.751 5.19 14.729 0 5.986-3.32 11.364-3.32 5.377-9.399 7.528l12.719 26.093h-14.215l-12.252-24.409h-13.187v24.409zm0-53.495v17.115h17.957q4.489 0 6.546-2.432 2.058-2.432 2.058-6.173 0-3.647-2.011-6.079-2.011-2.431-6.593-2.431h-17.957z"/><path fill="#1A7FD4" d="M200 160.733h-12.626V95.267H200v65.466z"/><g opacity=".4"><linearGradient id="c" x1=".517" x2=".517" y2="1"><stop offset="0%" stop-color="#fff"/><stop offset="12.5%" stop-opacity=".098" stop-color="#fff"/><stop offset="92.5%" stop-opacity=".098"/><stop offset="100%" stop-opacity=".498"/></linearGradient><path fill="none" stroke="url(#c)" stroke-linecap="round" stroke-linejoin="round" stroke-width="4.077" d="M165.685 11.947c74.055 0 84.639 10.557 84.639 84.544v59.251c0 73.986-10.584 84.543-84.639 84.543h-75.37c-74.055 0-84.639-10.557-84.639-84.543V96.491c0-73.987 10.584-84.544 84.639-84.544h75.37z" vector-effect="non-scaling-stroke"/></g></svg>

<svg xmlns="http://www.w3.org/2000/svg" style="isolation:isolate" width="256" height="256" viewBox="0 0 256 256">
 <defs>
  <filter id="iCR7eHEg8Fye31B5ckZHIgpufsmaUq1R" width="270.648" height="254.338" x="-7.32" y="2.95" filterUnits="userSpaceOnUse">
   <feGaussianBlur xmlns="http://www.w3.org/2000/svg" in="SourceGraphic" stdDeviation="4.294"/>
   <feOffset xmlns="http://www.w3.org/2000/svg" dx="0" dy="4" result="pf_100_offsetBlur"/>
   <feFlood xmlns="http://www.w3.org/2000/svg" flood-opacity=".4"/>
   <feComposite xmlns="http://www.w3.org/2000/svg" in2="pf_100_offsetBlur" operator="in" result="pf_100_dropShadow"/>
   <feBlend xmlns="http://www.w3.org/2000/svg" in="SourceGraphic" in2="pf_100_dropShadow" mode="normal"/>
  </filter>
 </defs>
 <g filter="url(#iCR7eHEg8Fye31B5ckZHIgpufsmaUq1R)">
  <linearGradient id="_lgradient_206" x1=".567" x2=".567" y1="1.071" y2="-.071" gradientTransform="matrix(244.648,0,0,228.338,5.676,11.947)" gradientUnits="userSpaceOnUse">
   <stop offset="0%" style="stop-color:rgb(160,160,160)"/>
   <stop offset="100%" style="stop-color:rgb(223,223,223)"/>
  </linearGradient>
  <path fill="url(#_lgradient_206)" d="M 165.685 11.947 C 239.74 11.947 250.324 22.504 250.324 96.491 L 250.324 155.742 C 250.324 229.728 239.74 240.285 165.685 240.285 L 90.315 240.285 C 16.26 240.285 5.676 229.728 5.676 155.742 L 5.676 96.491 C 5.676 22.504 16.26 11.947 90.315 11.947 L 165.685 11.947 Z"/>
 </g>
 <g>
  <path fill="#DA1636" fill-rule="evenodd" d="M 55.6 160.733 L 55.6 95.267 L 77.672 95.267 L 77.672 95.267 Q 85.902 95.267 92.214 98.026 L 92.214 98.026 L 92.214 98.026 Q 98.527 100.785 102.175 105.554 L 102.175 105.554 L 102.175 105.554 Q 105.822 110.324 107.599 115.982 L 107.599 115.982 L 107.599 115.982 Q 109.376 121.64 109.376 128 L 109.376 128 L 109.376 128 Q 109.376 132.676 108.394 137.165 L 108.394 137.165 L 108.394 137.165 Q 107.412 141.654 104.98 146.003 L 104.98 146.003 L 104.98 146.003 Q 102.549 150.352 98.995 153.579 L 98.995 153.579 L 98.995 153.579 Q 95.441 156.805 89.83 158.769 L 89.83 158.769 L 89.83 158.769 Q 84.218 160.733 77.297 160.733 L 77.297 160.733 L 55.6 160.733 Z M 68.226 148.762 L 78.794 148.762 L 78.794 148.762 Q 87.678 148.762 91.981 142.543 L 91.981 142.543 L 91.981 142.543 Q 96.283 136.324 96.283 128 L 96.283 128 L 96.283 128 Q 96.283 119.489 92.074 113.364 L 92.074 113.364 L 92.074 113.364 Q 87.866 107.238 79.823 107.238 L 79.823 107.238 L 68.226 107.238 L 68.226 148.762 Z"/>
  <path fill="#46A926" fill-rule="evenodd" d="M 134.627 160.733 L 122.002 160.733 L 122.002 95.267 L 152.397 95.267 L 152.397 95.267 Q 163.9 95.267 169.091 101.019 L 169.091 101.019 L 169.091 101.019 Q 174.281 106.77 174.281 115.748 L 174.281 115.748 L 174.281 115.748 Q 174.281 121.734 170.961 127.112 L 170.961 127.112 L 170.961 127.112 Q 167.641 132.489 161.562 134.64 L 161.562 134.64 L 174.281 160.733 L 160.066 160.733 L 147.814 136.324 L 134.627 136.324 L 134.627 160.733 Z M 134.627 107.238 L 134.627 124.353 L 152.584 124.353 L 152.584 124.353 Q 157.073 124.353 159.13 121.921 L 159.13 121.921 L 159.13 121.921 Q 161.188 119.489 161.188 115.748 L 161.188 115.748 L 161.188 115.748 Q 161.188 112.101 159.177 109.669 L 159.177 109.669 L 159.177 109.669 Q 157.166 107.238 152.584 107.238 L 152.584 107.238 L 134.627 107.238 Z"/>
  <path fill="#1A7FD4" d="M 200 160.733 L 187.374 160.733 L 187.374 95.267 L 200 95.267 L 200 160.733 Z"/>
 </g>
 <g opacity=".4">
  <linearGradient id="_lgradient_207" x1=".517" x2=".517" y1="0" y2="1">
   <stop offset="0%" style="stop-color:rgb(255,255,255)"/>
   <stop offset="12.5%" stop-opacity=".098" style="stop-color:rgb(255,255,255)"/>
   <stop offset="92.5%" stop-opacity=".098" style="stop-color:rgb(0,0,0)"/>
   <stop offset="100%" stop-opacity=".498" style="stop-color:rgb(0,0,0)"/>
  </linearGradient>
  <path fill="none" stroke="url(#_lgradient_207)" stroke-linecap="round" stroke-linejoin="round" stroke-width="4.077" d="M 165.685 11.947 C 239.74 11.947 250.324 22.504 250.324 96.491 L 250.324 155.742 C 250.324 229.728 239.74 240.285 165.685 240.285 L 90.315 240.285 C 16.26 240.285 5.676 229.728 5.676 155.742 L 5.676 96.491 C 5.676 22.504 16.26 11.947 90.315 11.947 L 165.685 11.947 Z" vector-effect="non-scaling-stroke"/>
 </g>
</svg>
